X:1
T:Miss Gordon of Gight
C:Isaac Cooper
G:fiddle reel, early 1780s
M:C
L:1/8
Q:1/4=120
S:Alistair Fraser's "return to kintrail"
K:Cmin
G,| G,CEG cgec|B/c/dBG FDB,D|   CEGF/E/ DFBG|FDB,D EC C:|
d| egbg  agfe|defg fdBf | egba/g/ agfe|dBfd  cd cd|
egbg  agfe|defg fdBf | gfed cdec|BGFD  EC C ||
